contributed-vectors/poweramp_zap.svg

<svg width="192" height="192" viewBox="0 0 192 192" fill="none" xmlns="http://www.w3.org/2000/svg">
<circle cx="96" cy="96" r="88" fill="#56595B"/>
<path d="M123.075 89.5729C122.652 88.9889 121.768 89.0322 121.403 89.6548L108.161 112.263C107.772 112.927 106.81 112.921 106.429 112.252L94.5285 91.3374C94.1821 90.7288 93.3335 90.6554 92.8879 91.1957L80.7273 105.938C80.3156 106.437 79.5457 106.42 79.1568 105.903L69.6334 93.2456C69.2349 92.7159 68.4406 92.7135 68.0389 93.2407L61.4792 101.85C61.0892 102.361 60.3243 102.377 59.9138 101.882L54.4653 95.3056C54.177 94.9577 53.6912 94.8463 53.2802 95.0339L49.3883 96.8099C48.458 97.2344 47.5656 96.154 48.1581 95.3207L53.5805 87.6941C53.9647 87.1537 54.7591 87.1301 55.1747 87.6469L59.8634 93.4765C60.2647 93.9754 61.0248 93.974 61.4242 93.4736L69.4899 83.3689C69.901 82.8539 70.6892 82.8704 71.0784 83.4021L79.4614 94.8542C79.86 95.3987 80.6724 95.4002 81.073 94.8572L93.3798 78.1767C93.7833 77.6298 94.603 77.636 94.9981 78.1889L106.687 94.545C107.108 95.1335 107.995 95.0946 108.362 94.4716L121.343 72.4627C121.751 71.7709 122.767 71.8181 123.109 72.5448L141.475 111.554C141.992 112.652 140.473 113.549 139.761 112.567L123.075 89.5729Z" fill="#9ABEFF"/>
</svg>

<svg xmlns="http://www.w3.org/2000/svg" width="192" height="192" fill="none"><circle cx="96" cy="96" r="88" fill="#56595B"/><path fill="#9ABEFF" d="M123.075 89.573a1 1 0 0 0-1.672.082l-13.242 22.608a1 1 0 0 1-1.732-.011l-11.9-20.915a1 1 0 0 0-1.641-.141l-12.16 14.742a1 1 0 0 1-1.571-.035l-9.524-12.657a1 1 0 0 0-1.594-.005l-6.56 8.609a1 1 0 0 1-1.565.032l-5.449-6.576a1 1 0 0 0-1.185-.272l-3.892 1.776c-.93.424-1.822-.656-1.23-1.49l5.422-7.626a1 1 0 0 1 1.595-.047l4.688 5.83a1 1 0 0 0 1.561-.003l8.066-10.105a1 1 0 0 1 1.588.033l8.383 11.452a1 1 0 0 0 1.612.003l12.307-16.68a1 1 0 0 1 1.618.012l11.689 16.356a1 1 0 0 0 1.675-.073l12.981-22.01a1 1 0 0 1 1.766.083l18.366 39.009c.517 1.098-1.002 1.995-1.714 1.013l-16.686-22.994Z"/></svg>
